assets/icons/riderIcon.svg

<svg width="44" height="44" viewBox="0 0 44 44" fill="none" xmlns="http://www.w3.org/2000/svg">
<rect width="44" height="44" rx="22" fill="#CFEAFD" fill-opacity="0.8"/>
<path d="M26.4419 21.165C26.2619 21.3648 26.0149 21.4825 25.7462 21.4962C25.6257 21.5024 25.502 21.5056 25.3787 21.5061H25.3785H25.3728C25.1252 21.5061 24.8817 21.4922 24.6426 21.4654C24.6476 21.502 24.6559 21.5388 24.6696 21.5748C24.768 21.8349 25.0584 21.9661 25.3185 21.868L26.2755 21.506L28.5467 28.1297C28.7288 27.9305 28.9337 27.7539 29.1572 27.6023C29.2303 27.5527 29.3049 27.5052 29.3819 27.4611C29.5776 27.3492 29.7854 27.2551 30.0036 27.1811C30.025 27.1739 30.0465 27.1676 30.068 27.1608C30.3751 27.0631 30.6915 27.008 31.011 26.9973C31.0502 26.996 31.0893 26.9949 31.1285 26.9949C32.3445 26.9949 33.4495 27.622 34.0824 28.6159C34.4589 28.5979 34.5552 28.3773 33.9503 27.589C32.9747 26.3177 31.6176 26.0712 30.6633 26.084C30.6033 25.9225 30.5414 25.7538 30.4768 25.5754C29.8919 23.9583 28.5784 23.188 27.8053 22.8623L27.592 22.2403H28.4048C28.5643 22.9181 29.1714 23.4233 29.8979 23.4233C30.7459 23.4233 30.7459 20.3525 29.8979 20.3525C29.1714 20.3525 28.5643 20.8578 28.4048 21.5355H27.3503L27.0598 20.6884C27.0154 20.5594 26.9214 20.4541 26.7979 20.3962C26.7637 20.3802 26.7281 20.3691 26.6918 20.3611C26.6952 20.3869 26.6983 20.4126 26.6997 20.4389C26.7133 20.7073 26.6221 20.9653 26.4419 21.165Z" fill="#008CEF"/>
<path d="M24.8432 13.7329C25.1269 12.5148 24.3693 11.2973 23.151 11.0136C21.9328 10.7299 20.7153 11.4874 20.4316 12.7055C20.1479 13.9236 20.9055 15.1411 22.1238 15.4248C23.342 15.7085 24.5595 14.951 24.8432 13.7329Z" fill="#008CEF"/>
<path d="M19.6994 24.6016C19.703 24.6022 19.7064 24.6032 19.71 24.6038L23.5281 25.1975L24.9582 28.8226C25.1536 29.3175 25.6277 29.6195 26.1294 29.6195C26.2829 29.6195 26.439 29.5913 26.5908 29.5315C27.2375 29.2765 27.5548 28.5456 27.2996 27.899L25.6048 23.6033C25.4411 23.1888 25.0678 22.89 24.6275 22.8217L21.4643 22.3296C21.449 21.6334 21.5203 20.9146 21.6256 20.2236C21.3635 20.0163 21.1142 19.7868 20.8811 19.5331C20.085 18.6641 19.7125 17.8114 19.6173 17.5706L19.6166 17.5691L19.6123 17.5583C19.5175 17.3066 19.5265 17.0331 19.6377 16.7882C19.7487 16.5432 19.9484 16.3563 20.2003 16.2617C20.3143 16.2186 20.4335 16.1968 20.5548 16.1968C20.9716 16.1968 21.35 16.4591 21.4969 16.8492C21.4994 16.8559 21.5047 16.868 21.512 16.8853C21.5284 16.9232 21.5549 16.9818 21.5926 17.0567C21.6634 17.1978 21.7843 17.4185 21.9597 17.668C21.9976 17.7221 22.0389 17.7788 22.0837 17.8372C22.3142 16.8599 21.9333 15.7409 21.106 15.5347C20.2465 15.3205 19.0005 15.7872 18.4937 17.2614C17.8085 19.2926 17.6612 20.6147 17.9215 22.8513C18.1733 24.1464 18.9333 24.5127 19.6994 24.6016Z" fill="#008CEF"/>
<path d="M21.4117 17.1471C21.3719 17.0678 21.3438 17.0055 21.3266 16.9659C21.318 16.9461 21.3122 16.932 21.3091 16.9242C21.3085 16.9228 21.308 16.9216 21.3075 16.9205H21.3076C21.1509 16.5041 20.6865 16.2935 20.2701 16.4503C19.8537 16.6069 19.6433 17.0714 19.7998 17.4876C19.824 17.5466 20.1654 18.4551 21.0284 19.397C21.2134 19.5981 21.4247 19.8002 21.6608 19.9945C21.9762 20.2539 22.3373 20.4991 22.7515 20.7056C23.2982 20.9787 23.9353 21.1814 24.6538 21.264C24.8844 21.2905 25.123 21.3051 25.3701 21.3051C25.3719 21.3051 25.3737 21.3051 25.3756 21.3051C25.4934 21.3049 25.6126 21.3019 25.7332 21.2957C26.1776 21.2727 26.519 20.894 26.4959 20.4497C26.4943 20.4188 26.4907 20.3887 26.4857 20.359C26.4198 19.9601 26.0637 19.6656 25.6501 19.6869C25.5556 19.6916 25.4641 19.694 25.3755 19.694C24.6037 19.6932 23.9866 19.5203 23.4699 19.2638C22.8485 18.955 22.373 18.5119 22.026 18.0877C21.9417 17.9847 21.8628 17.8825 21.7937 17.7839C21.6175 17.5327 21.4913 17.3058 21.4117 17.1471Z" fill="#008CEF"/>
<path d="M10.1545 24.5355H16.5134C16.8101 24.5355 17.0508 24.2948 17.0508 23.9981V17.7287C17.0508 17.4319 16.8101 17.1914 16.5134 17.1914H10.1545C9.85781 17.1914 9.61719 17.432 9.61719 17.7287V23.9981C9.61719 24.2949 9.85781 24.5355 10.1545 24.5355Z" fill="#008CEF"/>
<path d="M19.0554 29.5362C18.5235 27.9674 16.8206 27.1267 15.2517 27.6587C13.7763 28.1589 12.9454 29.6947 13.2939 31.1806C13.316 31.2749 13.3424 31.3689 13.3742 31.4624C13.906 33.0312 15.609 33.8719 17.1779 33.3399C18.1962 32.9947 18.9072 32.1558 19.1357 31.1806C19.2591 30.6535 19.2421 30.0866 19.0554 29.5362ZM16.5952 31.6216C16.0856 31.7944 15.5404 31.5999 15.2459 31.1806C15.1823 31.0902 15.1299 30.9897 15.0926 30.8798C14.8825 30.26 15.2147 29.5871 15.8344 29.377C16.454 29.1669 17.127 29.4991 17.337 30.1188C17.4633 30.4912 17.3928 30.8819 17.1829 31.1806C17.0433 31.3793 16.8427 31.5376 16.5952 31.6216Z" fill="#008CEF"/>
<path d="M27.6621 29.973H21.2427C20.6878 28.8533 20.4969 27.7104 20.4337 26.9667C20.5985 26.9163 20.7191 26.7648 20.7191 26.5835V25.476C20.7191 25.2536 20.5388 25.0732 20.3164 25.0732H12.1109C11.8885 25.0732 11.7082 25.2536 11.7082 25.476V26.5835C11.7082 26.8059 11.8885 26.9862 12.1109 26.9862H12.1553C11.7179 28.0593 11.043 29.9196 11.043 31.1812C11.043 31.1812 11.7272 31.1812 12.7789 31.1812C12.6278 30.4279 12.7276 29.6501 13.0733 28.9497C13.4876 28.1107 14.2037 27.4829 15.0897 27.1827C15.4544 27.0589 15.8329 26.9963 16.2147 26.9963C17.7165 26.9963 19.0495 27.9522 19.5318 29.3753C19.7361 29.9779 19.7654 30.5981 19.6487 31.1812C19.8897 31.1812 20.1258 31.1812 20.3558 31.1812C20.9627 31.1812 21.5264 31.1812 22.0171 31.1812H27.6905C27.6102 30.7801 27.6009 30.3725 27.6621 29.973Z" fill="#008CEF"/>
<path d="M33.404 28.5444C32.855 27.9058 32.0563 27.5237 31.2121 27.5002C30.9265 27.4922 30.6358 27.5256 30.3479 27.6037C30.2871 27.6202 30.2263 27.6379 30.1658 27.6584C29.9452 27.7332 29.7396 27.8319 29.5496 27.9494C29.4802 27.9922 29.413 28.0372 29.348 28.085C29.1144 28.2573 28.9097 28.4607 28.7381 28.6874C28.4531 29.0642 28.2596 29.5051 28.1758 29.9722C28.1056 30.3638 28.1126 30.7739 28.2078 31.1804C28.23 31.2746 28.2563 31.3686 28.2882 31.4622C28.8199 33.031 30.523 33.8717 32.0919 33.3397C33.6607 32.8078 34.5014 31.1047 33.9694 29.5359C33.8424 29.1606 33.6475 28.8275 33.404 28.5444ZM31.5094 31.6213C30.8897 31.8315 30.2168 31.4992 30.0068 30.8795C29.7967 30.2597 30.1288 29.5869 30.7485 29.3768C31.3682 29.1666 32.0411 29.4989 32.2512 30.1186C32.4614 30.7383 32.1292 31.4111 31.5094 31.6213Z" fill="#008CEF"/>
</svg>

<svg xmlns="http://www.w3.org/2000/svg" width="44" height="44" fill="none" viewBox="0 0 44 44"><rect width="44" height="44" fill="#cfeafd" fill-opacity=".8" rx="22"/><path fill="#008cef" d="M26.442 21.165a1 1 0 0 1-.696.331q-.181.01-.367.01h-.006q-.372 0-.73-.04a.504.504 0 0 0 .676.403l.956-.363 2.272 6.624a3.5 3.5 0 0 1 .835-.669q.294-.168.622-.28l.064-.02a3.5 3.5 0 0 1 1.06-.166c1.216 0 2.322.627 2.954 1.62.377-.017.473-.238-.132-1.026-.975-1.271-2.332-1.518-3.287-1.505q-.09-.242-.186-.509c-.585-1.617-1.899-2.387-2.672-2.713l-.213-.622h.813c.16.678.766 1.183 1.493 1.183.848 0 .848-3.07 0-3.07-.727 0-1.334.505-1.493 1.182H27.35l-.29-.847a.5.5 0 0 0-.368-.327l.008.078c.013.268-.078.526-.258.726m-1.599-7.432a2.265 2.265 0 1 0-4.411-1.027 2.265 2.265 0 0 0 4.411 1.027"/><path fill="#008cef" d="m19.7 24.602.01.002 3.818.594 1.43 3.625a1.26 1.26 0 0 0 2.342-.924l-1.695-4.296a1.26 1.26 0 0 0-.977-.781l-3.164-.492c-.015-.697.056-1.415.162-2.106a6.7 6.7 0 0 1-2.008-2.653l-.001-.002-.005-.01a1 1 0 0 1 .026-.77 1 1 0 0 1 .917-.592c.417 0 .795.262.942.652l.015.036q.024.058.08.172a5 5 0 0 0 .492.78c.23-.977-.15-2.096-.978-2.302-.86-.215-2.106.252-2.612 1.726-.686 2.032-.833 3.354-.572 5.59.251 1.295 1.011 1.662 1.777 1.75"/><path fill="#008cef" d="M21.412 17.147a4 4 0 0 1-.103-.223l-.002-.003a.805.805 0 1 0-1.507.567c.024.059.365.967 1.228 1.909q.278.303.633.598c.315.259.676.504 1.09.71a5.7 5.7 0 0 0 1.903.559q.345.04.716.041h.006a7 7 0 0 0 .357-.01.805.805 0 1 0-.083-1.608 6 6 0 0 1-.274.007 4.2 4.2 0 0 1-1.906-.43 4.4 4.4 0 0 1-1.444-1.176 5 5 0 0 1-.614-.94m-11.257 7.388h6.358a.54.54 0 0 0 .538-.538v-6.27a.537.537 0 0 0-.538-.537h-6.359a.537.537 0 0 0-.537.538v6.27c0 .296.24.537.537.537m8.901 5a3 3 0 1 0-5.68 1.926 3 3 0 0 0 5.68-1.926m-2.46 2.086a1.185 1.185 0 1 1-.76-2.245 1.185 1.185 0 0 1 .76 2.245"/><path fill="#008cef" d="M27.662 29.973h-6.42c-.554-1.12-.745-2.263-.808-3.006a.4.4 0 0 0 .285-.383v-1.108a.403.403 0 0 0-.403-.403h-8.205a.403.403 0 0 0-.403.403v1.108c0 .222.18.402.403.402h.044c-.437 1.073-1.112 2.934-1.112 4.195h1.736a3.48 3.48 0 0 1 .294-2.231 3.48 3.48 0 0 1 2.017-1.767 3.501 3.501 0 0 1 4.559 3.999h8.042a3.5 3.5 0 0 1-.029-1.209m5.742-1.429a3 3 0 0 0-2.192-1.044 3 3 0 0 0-1.046.158 3 3 0 0 0-1.99 2.314 3 3 0 0 0 .112 1.49 3 3 0 1 0 5.116-2.918m-1.895 3.077a1.185 1.185 0 1 1-.76-2.244 1.185 1.185 0 0 1 .76 2.244"/></svg>
